src/assests/icons/web.svg

<?xml version="1.0" encoding="UTF-8"?>
<svg fill="none" viewBox="0 0 90 90" xmlns="http://www.w3.org/2000/svg">
<path d="m81.727 19.053c-0.6849-0.9674-1.3994-1.9108-2.16-2.8191-8.2599-9.9122-20.69-16.234-34.568-16.234-0.0258 0-0.0462 0.0018462-0.0683 0.0018462-0.0148 0-0.0259-0.0018462-0.0406-0.0018462-0.0499 0-0.1016 0.0055386-0.1551 0.0055386-13.773 0.079386-26.094 6.3823-34.306 16.228-0.75703 0.9101-1.4752 1.8517-2.1601 2.8191-5.1989 7.3386-8.2691 16.287-8.2691 25.946 0 9.6574 3.0684 18.61 8.2691 25.946 0.68494 0.9674 1.4031 1.9108 2.1601 2.8191 8.21 9.8457 20.532 16.149 34.306 16.228 0.0535 0 0.1052 0.0056 0.1551 0.0056 0.0147 0 0.0258-0.0019 0.0388-0.0019 0.0221 0 0.0424 0.0019 0.0683 0.0019 13.88 0 26.308-6.3196 34.57-16.232 0.7569-0.9083 1.4751-1.8535 2.16-2.8209 5.1989-7.3387 8.2691-16.287 8.2691-25.948 0-9.6556-3.0702-18.606-8.2691-25.944zm-49.882-13.2c-4.1355 3.9896-7.5731 9.8218-9.9418 16.821-3.1736-1.1853-6.0296-2.6124-8.4924-4.226 4.8278-5.7342 11.177-10.15 18.434-12.595zm-20.602 15.418c2.7989 1.8683 6.0334 3.5022 9.6095 4.8481-1.5435 5.6382-2.4296 11.897-2.4629 18.501h-14.69c0.07938-8.6864 2.8764-16.725 7.5435-23.349zm-7.4051 27.041h14.624c0.2382 5.5275 1.0782 10.773 2.3872 15.571-3.5779 1.3459-6.8106 2.9798-9.6058 4.85-4.1373-5.8728-6.805-12.855-7.4051-20.421zm9.5836 23.232c2.4629-1.6099 5.3115-3.0333 8.4778-4.2185 2.3686 7.0007 5.8081 12.829 9.9454 16.819-7.2574-2.4425-13.594-6.8679-18.423-12.6zm29.731 14.629c-7.5768-1.0375-14.116-8.8081-17.823-20 5.3447-1.6025 11.395-2.5735 17.823-2.7305v22.73zm0-26.419c-6.7792 0.1625-13.169 1.2093-18.859 2.9558-1.165-4.4235-1.9108-9.2771-2.1342-14.397h20.993v11.441zm0-15.135h-21.071c0.0333-6.2014 0.84-12.059 2.2284-17.325 5.6826 1.741 12.068 2.7896 18.84 2.9502v14.374h0.0018zm0-18.063c-6.4247-0.1569-12.473-1.1243-17.812-2.7268 3.7053-11.186 10.239-18.964 17.812-20.003v22.73zm43.14 18.063h-14.902c-0.0332-6.5762-0.9083-12.809-2.4406-18.427 3.6554-1.3588 6.9583-3.0185 9.8032-4.9201 4.6654 6.6242 7.4605 14.661 7.5399 23.347zm-9.711-26.168c-2.5127 1.645-5.4333 3.0943-8.6826 4.2924-2.3909-7.0949-5.8783-12.997-10.078-17.002 7.3922 2.4204 13.858 6.8863 18.761 12.709zm-29.737-14.598c7.4937 1.1576 13.948 8.9208 17.614 20.031-5.2893 1.5674-11.269 2.5163-17.614 2.6714v-22.703zm0 26.393c6.6924-0.1588 13.006-1.1853 18.639-2.8893 1.3809 5.2505 2.1821 11.086 2.2135 17.264h-20.853v-14.374zm0 18.065h20.777c-0.2234 5.0955-0.9655 9.927-2.1194 14.338-5.6401-1.7096-11.962-2.7342-18.654-2.8949l-0.0037-11.443zm0 37.834v-22.701c6.3491 0.1551 12.329 1.104 17.626 2.6714-3.6721 11.114-10.134 18.872-17.626 20.029zm10.976-1.8869c4.2001-4.0025 7.6949-9.9011 10.086-16.998 3.2419 1.1963 6.1589 2.6437 8.6678 4.285-4.9035 5.821-11.361 10.291-18.754 12.713zm20.932-15.526c-2.8449-1.9016-6.1478-3.565-9.8051-4.922 1.296-4.7779 2.1287-9.999 2.3631-15.497h14.845c-0.6001 7.5638-3.2604 14.548-7.4033 20.419z" fill="#6B42AD"/>
</svg>

<svg width="90" height="90" viewBox="0 0 90 90" fill="none" xmlns="http://www.w3.org/2000/svg">
<path d="M81.7272 19.0527C81.0423 18.0853 80.3278 17.1419 79.5672 16.2336C71.3073 6.32136 58.8769 0 44.9991 0C44.9733 0 44.9529 0.00184622 44.9308 0.00184622C44.916 0.00184622 44.9049 0 44.8902 0C44.8403 0 44.7886 0.00553862 44.7351 0.00553862C30.9625 0.0849248 18.641 6.38782 10.4292 16.2336C9.67217 17.1437 8.95403 18.0853 8.26909 19.0527C3.07022 26.3913 0 35.3398 0 44.9991C0 54.6565 3.06837 63.6087 8.26909 70.9455C8.95403 71.9129 9.67217 72.8563 10.4292 73.7646C18.6392 83.6103 30.9607 89.9132 44.7351 89.9926C44.7886 89.9926 44.8403 89.9982 44.8902 89.9982C44.9049 89.9982 44.916 89.9963 44.929 89.9963C44.9511 89.9963 44.9714 89.9982 44.9973 89.9982C58.8769 89.9982 71.3055 83.6786 79.5672 73.7664C80.3241 72.8581 81.0423 71.9129 81.7272 70.9455C86.9261 63.6068 89.9963 54.6583 89.9963 44.9972C89.9963 35.3416 86.9261 26.3913 81.7272 19.0527ZM31.845 5.85243C27.7095 9.84205 24.2719 15.6742 21.9032 22.6731C18.7296 21.4878 15.8736 20.0607 13.4108 18.4471C18.2386 12.7129 24.5876 8.29679 31.845 5.85243ZM11.2433 21.27C14.0422 23.1383 17.2767 24.7722 20.8528 26.1181C19.3093 31.7563 18.4232 38.0149 18.3899 44.6188H3.69977C3.77915 35.9324 6.57614 27.8941 11.2433 21.27ZM3.83823 48.3111H18.4619C18.7001 53.8386 19.5401 59.0837 20.8491 63.8819C17.2712 65.2278 14.0385 66.8617 11.2433 68.7319C7.10599 62.8591 4.43825 55.8768 3.83823 48.3111ZM13.4218 71.5436C15.8847 69.9337 18.7333 68.5103 21.8996 67.3251C24.2682 74.3258 27.7077 80.1543 31.845 84.1439C24.5876 81.7014 18.2515 77.276 13.4218 71.5436ZM43.1529 86.1728C35.5761 85.1353 29.0369 77.3647 25.3298 66.173C30.6745 64.5705 36.7245 63.5995 43.1529 63.4425V86.1728ZM43.1529 59.7538C36.3737 59.9163 29.984 60.9631 24.2941 62.7096C23.1291 58.2861 22.3833 53.4325 22.1599 48.313H43.1529V59.7538ZM43.1529 44.6188H22.0823C22.1156 38.4174 22.9223 32.5594 24.3107 27.2941C29.9933 29.0351 36.3792 30.0837 43.1511 30.2443V44.6188H43.1529ZM43.1529 26.5556C36.7282 26.3987 30.68 25.4313 25.3409 23.8288C29.0462 12.6427 35.5798 4.86472 43.1529 3.82531V26.5556ZM86.2929 44.6188H71.3904C71.3572 38.0426 70.4821 31.8099 68.9498 26.1919C72.6052 24.8331 75.9081 23.1734 78.753 21.2718C83.4184 27.896 86.2135 35.9324 86.2929 44.6188ZM76.5819 18.4508C74.0692 20.0958 71.1486 21.5451 67.8993 22.7432C65.5084 15.6483 62.021 9.74605 57.8209 5.74166C65.2131 8.16201 71.6784 12.628 76.5819 18.4508ZM46.8453 3.853C54.339 5.01056 60.7933 12.7738 64.4598 23.8842C59.1705 25.4516 53.1907 26.4005 46.8453 26.5556V3.853ZM46.8453 30.2462C53.5377 30.0874 59.8517 29.0609 65.4845 27.3569C66.8654 32.6074 67.6666 38.4432 67.698 44.6206H46.8453V30.2462ZM46.8453 48.3111H67.6223C67.3989 53.4066 66.6568 58.2381 65.5029 62.6487C59.8628 60.9391 53.5414 59.9145 46.849 59.7538L46.8453 48.3111ZM46.8453 86.1452V63.4444C53.1944 63.5995 59.1742 64.5484 64.4709 66.1158C60.7988 77.2299 54.3371 84.9876 46.8453 86.1452ZM57.8209 84.2583C62.021 80.2558 65.5158 74.3572 67.9067 67.2605C71.1486 68.4568 74.0656 69.9042 76.5745 71.5455C71.671 77.3665 65.2131 81.8361 57.8209 84.2583ZM78.753 68.7319C75.9081 66.8303 72.6052 65.1669 68.9479 63.8099C70.2439 59.032 71.0766 53.8109 71.311 48.313H86.1563C85.5562 55.8768 82.8959 62.861 78.753 68.7319Z" fill="#6B42AD"/>
</svg>
